gama.ui.shared/icons_svg/dark/navigator/status.info.svg

<?xml version="1.0" encoding="UTF-8" standalone="no"?>
<!DOCTYPE svg PUBLIC "-//W3C//DTD SVG 1.1//EN" "http://www.w3.org/Graphics/SVG/1.1/DTD/svg11.dtd">
<svg xmlns="http://www.w3.org/2000/svg" xmlns:dc="http://purl.org/dc/elements/1.1/" version="1.1" xmlns:xl="http://www.w3.org/1999/xlink" viewBox="-93.54519 -3555.2937 24.75 24.75" width="24.75" height="24.75">
  <defs/>
  <g id="SOURCES" stroke-dasharray="none" stroke-opacity="1" stroke="none" fill="none" fill-opacity="1">
    <title>SOURCES</title>
    <g id="SOURCES_Dark">
      <title>Dark</title>
      <g id="Group_12181">
        <g id="Graphic_10964">
          <circle cx="-81.17019" cy="-3543.086" r="8.00000702080161" fill="#666"/>
          <circle cx="-81.17019" cy="-3543.086" r="8.00000702080161" stroke="black" stroke-linecap="round" stroke-linejoin="round" stroke-width="0"/>
        </g>
        <g id="Graphic_10963">
          <path d="M -80.37019 -3539.886 L -79.17019 -3539.886 C -78.94619 -3539.886 -78.77019 -3539.71 -78.77019 -3539.486 C -78.77019 -3539.262 -78.94619 -3539.086 -79.17019 -3539.086 L -82.37019 -3539.086 C -82.59419 -3539.086 -82.77019 -3539.262 -82.77019 -3539.486 C -82.77019 -3539.71 -82.59419 -3539.886 -82.37019 -3539.886 L -81.17019 -3539.886 L -81.17019 -3543.886 L -82.37019 -3543.886 C -82.59419 -3543.886 -82.77019 -3544.062 -82.77019 -3544.286 C -82.77019 -3544.51 -82.59419 -3544.686 -82.37019 -3544.686 L -80.77019 -3544.686 C -80.54619 -3544.686 -80.37019 -3544.51 -80.37019 -3544.286 Z M -81.17019 -3535.086 C -85.58619 -3535.086 -89.17019 -3538.67 -89.17019 -3543.086 C -89.17019 -3547.502 -85.58619 -3551.086 -81.17019 -3551.086 C -76.75419 -3551.086 -73.17019 -3547.502 -73.17019 -3543.086 C -73.17019 -3538.67 -76.75419 -3535.086 -81.17019 -3535.086 Z M -81.17019 -3535.886 C -77.19419 -3535.886 -73.97019 -3539.11 -73.97019 -3543.086 C -73.97019 -3547.062 -77.19419 -3550.286 -81.17019 -3550.286 C -85.14619 -3550.286 -88.37019 -3547.062 -88.37019 -3543.086 C -88.37019 -3539.11 -85.14619 -3535.886 -81.17019 -3535.886 Z M -81.57019 -3547.086 L -80.77019 -3547.086 C -80.54619 -3547.086 -80.37019 -3546.91 -80.37019 -3546.686 L -80.37019 -3545.886 C -80.37019 -3545.662 -80.54619 -3545.486 -80.77019 -3545.486 L -81.57019 -3545.486 C -81.79419 -3545.486 -81.97019 -3545.662 -81.97019 -3545.886 L -81.97019 -3546.686 C -81.97019 -3546.91 -81.79419 -3547.086 -81.57019 -3547.086 Z" fill="#c0e0ff"/>
        </g>
      </g>
      <g id="Graphic_12452"/>
    </g>
  </g>
</svg>

<svg height="24.75" viewBox="-93.545 -3555.294 24.75 24.75" width="24.75" xmlns="http://www.w3.org/2000/svg"><g fill="none"><circle cx="-81.17" cy="-3543.086" fill="#666" r="8"/><circle cx="-81.17" cy="-3543.086" r="8"/><path d="m-80.37019-3539.886h1.2c.224 0 .4.176.4.4s-.176.4-.4.4h-3.2c-.224 0-.4-.176-.4-.4s.176-.4.4-.4h1.2v-4h-1.2c-.224 0-.4-.176-.4-.4s.176-.4.4-.4h1.6c.224 0 .4.176.4.4zm-.8 4.8c-4.416 0-8-3.584-8-8s3.584-8 8-8 8 3.584 8 8-3.584 8-8 8zm0-.8c3.976 0 7.2-3.224 7.2-7.2s-3.224-7.2-7.2-7.2-7.2 3.224-7.2 7.2 3.224 7.2 7.2 7.2zm-.4-11.2h.8c.224 0 .4.176.4.4v.8c0 .224-.176.4-.4.4h-.8c-.224 0-.4-.176-.4-.4v-.8c0-.224.176-.4.4-.4z" fill="#c0e0ff"/></g></svg>
